resources/haticons/SVG/filezilla.svg

<!-- Generated by IcoMoon.io -->
<svg version="1.1" xmlns="http://www.w3.org/2000/svg" width="24" height="24" viewBox="0 0 24 24">
<title>filezilla</title>
<path d="M24 22.2v0.975c-0.45 0-0.825 0.375-0.825 0.825h-0.975c0-0.45-0.375-0.825-0.825-0.825s-0.825 0.375-0.825 0.825h-1.050c0-0.45-0.375-0.825-0.825-0.825s-0.825 0.375-0.825 0.825h-0.975c0-0.45-0.375-0.825-0.825-0.825s-0.825 0.375-0.825 0.825h-0.975c0-0.45-0.375-0.825-0.825-0.825s-0.825 0.375-0.825 0.825h-0.975c0-0.45-0.375-0.825-0.825-0.825s-0.825 0.375-0.825 0.825h-0.975c0-0.45-0.375-0.825-0.825-0.825s-0.825 0.375-0.825 0.825h-1.2c0-0.45-0.375-0.825-0.825-0.825s-0.825 0.375-0.825 0.825h-0.975c0-0.45-0.375-0.825-0.825-0.825s-0.825 0.375-0.825 0.825h-1.050c0-0.45-0.375-0.825-0.825-0.825v-0.975c0.45 0 0.825-0.375 0.825-0.825s-0.375-0.825-0.825-0.825v-1.050h0.075c0.45 0 0.825-0.375 0.825-0.825s-0.375-0.825-0.825-0.825h-0.075v-0.975c0.45 0 0.825-0.375 0.825-0.825s-0.375-0.825-0.825-0.825v-0.975c0.45 0 0.825-0.375 0.825-0.825s-0.375-0.825-0.825-0.825v-0.975c0.45 0 0.825-0.375 0.825-0.825s-0.375-0.825-0.825-0.825v-0.975c0.45 0 0.825-0.375 0.825-0.825 0-0.675-0.375-1.050-0.825-1.050v-0.975c0.45 0 0.825-0.375 0.825-0.825s-0.375-0.825-0.825-0.825v-0.975c0.45 0 0.825-0.375 0.825-0.825s-0.375-0.825-0.825-0.825v-1.050c0.45 0 0.825-0.375 0.825-0.825h0.975c0 0.45 0.375 0.825 0.825 0.825s0.825-0.375 0.825-0.825h1.050c0 0.45 0.375 0.825 0.825 0.825s0.825-0.375 0.825-0.825h0.975c0 0.45 0.375 0.825 0.825 0.825s0.825-0.375 0.825-0.825h0.975c0 0.45 0.375 0.825 0.825 0.825s0.825-0.375 0.825-0.825h0.975c0 0.45 0.375 0.825 0.825 0.825s0.825-0.375 0.825-0.825h0.975c0 0.45 0.375 0.825 0.825 0.825s0.825-0.375 0.825-0.825h0.975c0 0.45 0.375 0.825 0.825 0.825 0.675 0 1.050-0.375 1.050-0.825h0.975c0 0.45 0.375 0.825 0.825 0.825s0.825-0.375 0.825-0.825h0.975c0 0.45 0.375 0.825 0.825 0.825v0.975c-0.45 0-0.825 0.375-0.825 0.825s0.375 0.825 0.825 0.825v1.050c-0.45 0-0.825 0.375-0.825 0.825s0.375 0.825 0.825 0.825v0.975c-0.45 0-0.825 0.375-0.825 0.825s0.375 0.825 0.825 0.825v0.975c-0.45 0-0.825 0.375-0.825 0.825s0.375 0.825 0.825 0.825v0.975c-0.45 0-0.825 0.375-0.825 0.825s0.375 0.825 0.825 0.825v0.975c-0.45 0-0.825 0.375-0.825 0.825s0.375 0.825 0.825 0.825v0.975c-0.45 0-0.825 0.375-0.825 0.825s0.375 0.825 0.825 0.825v0.975c-0.45 0-0.825 0.375-0.825 0.825 0.075 0.75 0.45 1.125 0.9 1.125zM8.475 9.6l0.675-2.925h7.275l0.675-3.225h-10.5l-3.3 15.675h3.15l1.5-6.75h7.5l-6.525 6.45 1.275 2.1s0.9-0.675 2.85-0.375 3.45 0.6 6-0.525l0.6-2.85s-3.375 1.35-5.4 0.825c0 0-0.45-0.075-0.6-0.075l6.375-6.225 0.525-2.1h-12.075z"></path>
</svg>

<svg xmlns="http://www.w3.org/2000/svg" width="24" height="24"><path d="M24 22.2v.975a.832.832 0 0 0-.825.825H22.2c0-.45-.375-.825-.825-.825s-.825.375-.825.825H19.5c0-.45-.375-.825-.825-.825s-.825.375-.825.825h-.975c0-.45-.375-.825-.825-.825s-.825.375-.825.825h-.975c0-.45-.375-.825-.825-.825s-.825.375-.825.825h-.975c0-.45-.375-.825-.825-.825s-.825.375-.825.825H9c0-.45-.375-.825-.825-.825s-.825.375-.825.825h-1.2c0-.45-.375-.825-.825-.825S4.5 23.55 4.5 24h-.975c0-.45-.375-.825-.825-.825s-.825.375-.825.825H.825A.832.832 0 0 0 0 23.175V22.2c.45 0 .825-.375.825-.825S.45 20.55 0 20.55V19.5h.075c.45 0 .825-.375.825-.825s-.375-.825-.825-.825H0v-.975c.45 0 .825-.375.825-.825S.45 15.225 0 15.225v-.975c.45 0 .825-.375.825-.825S.45 12.6 0 12.6v-.975c.45 0 .825-.375.825-.825S.45 9.975 0 9.975V9c.45 0 .825-.375.825-.825C.825 7.5.45 7.125 0 7.125V6.15c.45 0 .825-.375.825-.825S.45 4.5 0 4.5v-.975c.45 0 .825-.375.825-.825S.45 1.875 0 1.875V.825C.45.825.825.45.825 0H1.8c0 .45.375.825.825.825S3.45.45 3.45 0H4.5c0 .45.375.825.825.825S6.15.45 6.15 0h.975c0 .45.375.825.825.825S8.775.45 8.775 0h.975c0 .45.375.825.825.825S11.4.45 11.4 0h.975c0 .45.375.825.825.825s.825-.375.825-.825H15c0 .45.375.825.825.825S16.65.45 16.65 0h.975c0 .45.375.825.825.825.675 0 1.05-.375 1.05-.825h.975c0 .45.375.825.825.825s.825-.375.825-.825h.975c0 .45.375.825.825.825V1.8c-.45 0-.825.375-.825.825s.375.825.825.825V4.5c-.45 0-.825.375-.825.825s.375.825.825.825v.975c-.45 0-.825.375-.825.825s.375.825.825.825v.975c-.45 0-.825.375-.825.825s.375.825.825.825v.975c-.45 0-.825.375-.825.825s.375.825.825.825V15c-.45 0-.825.375-.825.825s.375.825.825.825v.975c-.45 0-.825.375-.825.825s.375.825.825.825v.975a.832.832 0 0 0-.825.825c.075.75.45 1.125.9 1.125zM8.475 9.6l.675-2.925h7.275L17.1 3.45H6.6L3.3 19.125h3.15l1.5-6.75h7.5l-6.525 6.45 1.275 2.1s.9-.675 2.85-.375 3.45.6 6-.525l.6-2.85s-3.375 1.35-5.4.825c0 0-.45-.075-.6-.075l6.375-6.225.525-2.1H8.475z"/></svg>
